X: 32403
T: Piper's Chair, The
R: jig
M: 6/8
K: Gmajor
|:D2G GFD|cBc ABc|ded cAG|FAG FEF|
D2G GFD|cBc ABc|ded cAF|1 AGF G3:|2 AGF GBd||
|:gfg agf|dgf g2g|GBd =f2e|A2B cBA|
GBd g2f|d2e fdc|BdB cAF|1 AGF GBd:|2 AGF G3||

